src/assets/pay-user.svg

<svg width="97" height="97" viewBox="0 0 97 97" fill="none" xmlns="http://www.w3.org/2000/svg">
<g clip-path="url(#clip0_1836_14513)">
<path d="M66.8401 83.1801H30.1601C21.1401 83.1801 13.8101 75.8501 13.8101 66.8301V30.1601C13.8101 21.1401 21.1401 13.8101 30.1601 13.8101H66.8301C75.8501 13.8101 83.1801 21.1401 83.1801 30.1601V66.8301C83.1801 75.8501 75.8501 83.1801 66.8301 83.1801H66.8401ZM30.1601 19.8101C24.4501 19.8101 19.8101 24.4501 19.8101 30.1601V66.8301C19.8101 72.5401 24.4501 77.1801 30.1601 77.1801H66.8301C72.5401 77.1801 77.1801 72.5401 77.1801 66.8301V30.1601C77.1801 24.4501 72.5401 19.8101 66.8301 19.8101H30.1601Z" fill="#EBECEF"/>
<path d="M20.5 40.5C31.5457 40.5 40.5 31.5457 40.5 20.5C40.5 9.4543 31.5457 0.5 20.5 0.5C9.4543 0.5 0.5 9.4543 0.5 20.5C0.5 31.5457 9.4543 40.5 20.5 40.5Z" fill="#FF444F"/>
<path d="M27.36 24.16C27.36 21.19 25.8 19.52 21.64 18.36C18.66 17.52 18 16.98 18 15.76C18 14.9 18.51 13.85 20.3 13.85C22.43 13.85 22.79 15.1 22.99 15.87H26.94C26.73 13.7 25.5 11.56 22.04 11.04V9.25H18.73V11.06C16.09 11.56 14.02 13.31 14.02 16.13C14.02 18.75 15.39 20.48 20.09 21.83C22.67 22.57 23.39 23.23 23.39 24.6C23.39 25.71 22.73 26.7 20.67 26.7C19.01 26.7 17.9 25.79 17.58 24.36H13.63C13.85 27.05 15.69 29.01 18.91 29.5V31.74H22.24V29.5C25.29 29.04 27.36 27.3 27.36 24.16Z" fill="white"/>
<path d="M88.5 51.51H57.02C52.6017 51.51 49.02 55.0917 49.02 59.51V88.5C49.02 92.9183 52.6017 96.5 57.02 96.5H88.5C92.9183 96.5 96.5 92.9183 96.5 88.5V59.51C96.5 55.0917 92.9183 51.51 88.5 51.51Z" fill="#CED0D6"/>
<path d="M80.5501 67.1302C81.6001 72.7102 76.8 77.5202 71.2101 76.4602C68.09 75.8702 65.5701 73.3502 64.9801 70.2302C63.9301 64.6502 68.7301 59.8402 74.3201 60.9002C77.4401 61.4902 79.9601 64.0102 80.5501 67.1302Z" fill="#5C616D"/>
<path d="M65.27 78.8098H80.24C83.95 78.8098 86.95 81.8098 86.95 85.5198V96.4998H58.56V85.5198C58.56 81.8098 61.56 78.8098 65.27 78.8098Z" fill="#5C616D"/>
</g>
<defs>
<clipPath id="clip0_1836_14513">
<rect width="96" height="96" fill="white" transform="translate(0.5 0.5)"/>
</clipPath>
</defs>
</svg>

<svg xmlns="http://www.w3.org/2000/svg" width="97" height="97" fill="none"><g clip-path="url(#a)"><path fill="#EBECEF" d="M66.84 83.18H30.16c-9.02 0-16.35-7.33-16.35-16.35V30.16c0-9.02 7.33-16.35 16.35-16.35h36.67c9.02 0 16.35 7.33 16.35 16.35v36.67c0 9.02-7.33 16.35-16.35 16.35zM30.16 19.81c-5.71 0-10.35 4.64-10.35 10.35v36.67c0 5.71 4.64 10.35 10.35 10.35h36.67c5.71 0 10.35-4.64 10.35-10.35V30.16c0-5.71-4.64-10.35-10.35-10.35z"/><path fill="#FF444F" d="M20.5 40.5c11.046 0 20-8.954 20-20s-8.954-20-20-20-20 8.954-20 20 8.954 20 20 20"/><path fill="#fff" d="M27.36 24.16c0-2.97-1.56-4.64-5.72-5.8-2.98-.84-3.64-1.38-3.64-2.6 0-.86.51-1.91 2.3-1.91 2.13 0 2.49 1.25 2.69 2.02h3.95c-.21-2.17-1.44-4.31-4.9-4.83V9.25h-3.31v1.81c-2.64.5-4.71 2.25-4.71 5.07 0 2.62 1.37 4.35 6.07 5.7 2.58.74 3.3 1.4 3.3 2.77 0 1.11-.66 2.1-2.72 2.1-1.66 0-2.77-.91-3.09-2.34h-3.95c.22 2.69 2.06 4.65 5.28 5.14v2.24h3.33V29.5c3.05-.46 5.12-2.2 5.12-5.34"/><path fill="#CED0D6" d="M88.5 51.51H57.02a8 8 0 0 0-8 8V88.5a8 8 0 0 0 8 8H88.5a8 8 0 0 0 8-8V59.51a8 8 0 0 0-8-8"/><path fill="#5C616D" d="M80.55 67.13a7.947 7.947 0 0 1-9.34 9.33c-3.12-.59-5.64-3.11-6.23-6.23a7.947 7.947 0 0 1 9.34-9.33c3.12.59 5.64 3.11 6.23 6.23M65.27 78.81h14.97c3.71 0 6.71 3 6.71 6.71V96.5H58.56V85.52c0-3.71 3-6.71 6.71-6.71"/></g><defs><clipPath id="a"><path fill="#fff" d="M.5.5h96v96H.5z"/></clipPath></defs></svg>
